polaris-icons/icons/new-icons/ReferralCodeMajor.svg

<svg width="20" height="20" viewBox="0 0 20 20" fill="none" xmlns="http://www.w3.org/2000/svg">
<path d="M3 7.25C2.58579 7.25 2.25 7.58579 2.25 8C2.25 8.41421 2.58579 8.75 3 8.75H3.25V12C3.25 12.4142 3.58579 12.75 4 12.75C4.41421 12.75 4.75 12.4142 4.75 12V8.75C4.75 7.92157 4.07843 7.25 3.25 7.25H3Z" fill="#4A4A4A"/>
<path d="M7 7.25C6.58579 7.25 6.25 7.58579 6.25 8C6.25 8.41421 6.58579 8.75 7 8.75L7.81816 8.75L6.82461 10.8613C6.35644 11.8562 7.08231 13 8.18184 13H9C9.41421 13 9.75 12.6642 9.75 12.25C9.75 11.8358 9.41421 11.5 9 11.5H8.18184L9.17539 9.3887C9.64356 8.39383 8.91769 7.25 7.81816 7.25H7Z" fill="#4A4A4A"/>
<path d="M14.25 12.25C14.25 11.8358 14.5858 11.5 15 11.5H17C17.4142 11.5 17.75 11.8358 17.75 12.25C17.75 12.6642 17.4142 13 17 13H15C14.5858 13 14.25 12.6642 14.25 12.25Z" fill="#4A4A4A"/>
<path d="M11 7.25C10.5858 7.25 10.25 7.58579 10.25 8C10.25 8.41421 10.5858 8.75 11 8.75H11.8182L11.5073 9.41054C11.2775 9.89898 11.3278 10.4732 11.6391 10.9143L12.0526 11.5H10.75C10.3358 11.5 10 11.8358 10 12.25C10 12.6642 10.3358 13 10.75 13H12.0526C13.2688 13 13.9794 11.6286 13.278 10.635L12.8645 10.0492L13.1754 9.3887C13.6436 8.39383 12.9177 7.25 11.8182 7.25H11Z" fill="#4A4A4A"/>
</svg>

<svg viewBox="0 0 20 20" xmlns="http://www.w3.org/2000/svg"><path d="M3 7.25a.75.75 0 0 0 0 1.5h.25v3.25a.75.75 0 0 0 1.5 0v-3.25a1.5 1.5 0 0 0-1.5-1.5h-.25Z" fill="#5C5F62"/><path d="M7 7.25a.75.75 0 0 0 0 1.5h.818l-.993 2.111a1.5 1.5 0 0 0 1.357 2.139h.818a.75.75 0 0 0 0-1.5h-.818l.993-2.111a1.5 1.5 0 0 0-1.357-2.139h-.818Z" fill="#5C5F62"/><path d="M14.25 12.25a.75.75 0 0 1 .75-.75h2a.75.75 0 0 1 0 1.5h-2a.75.75 0 0 1-.75-.75Z" fill="#5C5F62"/><path d="M11 7.25a.75.75 0 0 0 0 1.5h.818l-.31.66a1.5 1.5 0 0 0 .131 1.504l.414.586h-1.303a.75.75 0 0 0 0 1.5h1.303c1.216 0 1.926-1.371 1.225-2.365l-.414-.586.311-.66a1.5 1.5 0 0 0-1.357-2.139h-.818Z" fill="#5C5F62"/></svg>
